actions/16/format-list-unordered.svg

<svg xmlns="http://www.w3.org/2000/svg" style="fill-rule:evenodd;clip-rule:evenodd;stroke-linejoin:round;stroke-miterlimit:2" width="100%" height="100%" viewBox="0 0 16 16" xml:space="preserve">
 <defs>
  <style id="current-color-scheme" type="text/css">
   .ColorScheme-Text { color:#dfdfdf; } .ColorScheme-Highlight { color:#4285f4; } .ColorScheme-NeutralText { color:#ff9800; } .ColorScheme-PositiveText { color:#4caf50; } .ColorScheme-NegativeText { color:#f44336; }
  </style>
 </defs>
 <path style="fill:currentColor;" class="ColorScheme-Text" d="M3.296,8.72l-1.167,0l-0,5.407l1.167,0l0,-5.407Zm2.101,0l-1.167,0l-0,5.407l1.167,0l0,-5.407Zm5.603,3.449l0,1.127l3,-0l0,-1.127l-3,-0Zm-3,-0l0,1.127l2,-0l0,-1.127l-2,-0Zm-0,-2.169l-0,1.086l6,0l0,-1.086l-6,0Zm-3.653,-8.742l-1.168,0l0,5.407l1.168,0l-0,-5.407Zm3.653,3.256l0,1.086l4,0l0,-1.086l-4,0Zm0,-2.196l0,1.112l6,-0l0,-1.112l-6,-0Z"/>
</svg>

<svg xmlns="http://www.w3.org/2000/svg" style="fill-rule:evenodd;clip-rule:evenodd;stroke-linejoin:round;stroke-miterlimit:2" viewBox="0 0 16 16" xml:space="preserve">
    <defs>
        <style id="current-color-scheme" type="text/css">
            .ColorScheme-Highlight{color:#4285f4}.ColorScheme-NeutralText{color:#ff9800}.ColorScheme-PositiveText{color:#4caf50}.ColorScheme-NegativeText{color:#f44336}
        </style>
    </defs>
    <path style="fill:currentColor;color:#dfdfdf" d="M3.296 8.72H2.129v5.407h1.167V8.72Zm2.101 0H4.23v5.407h1.167V8.72ZM11 12.169v1.127h3v-1.127h-3Zm-3 0v1.127h2v-1.127H8ZM8 10v1.086h6V10H8ZM4.347 1.258H3.179v5.407h1.168V1.258ZM8 4.514V5.6h4V4.514H8Zm0-2.196V3.43h6V2.318H8Z"/>
</svg>
